!!!!SEGMENT: Ror0115-Quel_sempre_acerbo_et_honorato_giorno.krn
!!!id: Ror0115
!!!AGN: Secular work
!!!voices: 5
!!!COM: Cipriano de Rore
!!!OTL: Quel sempre acerbo et honorato giorno
**kern	**text	**kern	**text	**kern	**text	**kern	**text	**kern	**text
*part5	*part5	*part4	*part4	*part3	*part3	*part2	*part2	*part1	*part1
*staff5	*staff5	*staff4	*staff4	*staff3	*staff3	*staff2	*staff2	*staff1	*staff1
*I"Bassus	*	*I"Tenor II	*	*I"Tenor I	*	*I"Altus	*	*I"Superius	*
*I'B	*	*I'T. II	*	*I'T. I	*	*I'A	*	*I'S	*
*clefF4	*	*clefGv2	*	*clefGv2	*	*clefGv2	*	*clefG2	*
*k[]	*	*k[]	*	*k[]	*	*k[]	*	*k[]	*
*MM140	*	*MM140	*	*MM140	*	*MM140	*	*MM140	*
*M2/1	*	*M2/1	*	*M2/1	*	*M2/1	*	*M2/1	*
*met(C)	*	*met(C)	*	*met(C)	*	*met(C)	*	*met(C)	*
=1	=1	=1	=1	=1	=1	=1	=1	=1	=1
!!section: Quel sempre acerbo
!!!OMD: Quel sempre acerbo
0r	.	0r	.	0r	.	2r	.	1g	Quel
.	.	.	.	.	.	2.C	Quel	.	.
.	.	.	.	.	.	.	.	2a	sem-
.	.	.	.	.	.	2D	sem-	.	.
.	.	.	.	.	.	.	.	4b	-pre a-
.	.	.	.	.	.	4E	-pre a-	[4cc	-cer-
=2	=2	=2	=2	=2	=2	=2	=2	=2	=2
1r	.	0r	.	2r	.	2F	-cer-	4cc]	.
.	.	.	.	.	.	.	.	4cc	-bo et
.	.	.	.	4r	Quel	4F	-bo et	4.dd	ho-
.	.	.	.	2G	.	2G	ho-	.	.
.	.	.	.	.	.	.	.	8dd	-no-
2C	Quel	.	.	.	.	.	.	4ee	-ra-
.	.	.	.	2A	sem-	8FL	.	4cc	-to
.	.	.	.	.	.	8EJ	.	.	.
2D	sem-	.	.	.	.	4F	.	2ff	gior-
.	.	.	.	4B	-pre a-	4D	-no-	.	.
=3	=3	=3	=3	=3	=3	=3	=3	=3	=3
4E	-pre a-	1r	.	2c	-cer-	4G	-ra-	4ee	-no,
2F	-cer-	.	.	.	.	4F	-to	4a	Quel
.	.	.	.	4c	-bo et	4.F	gior-	2a	sem-
4F	-bo et	.	.	4.d	ho-	.	.	.	.
.	.	.	.	.	.	8E	.	.	.
4G	ho-	2G	Quel	.	.	4D	.	4b	-pre a-
.	.	.	.	8d	-no-	.	.	.	.
4E	-no-	.	.	4e	-ra-	4C	.	2cc	-cer-
4.F	-ra-	2A	sem-	4c	-to	2C	-no,	.	.
.	.	.	.	[4f	gior-	.	.	4cc	-bo et
8E	.	.	.	.	.	.	.	.	.
=4	=4	=4	=4	=4	=4	=4	=4	=4	=4
4D	.	4B	-pre a-	4f]	.	4r	.	4dd	ho-
4C	-to	2c	-cer-	4e	-no	4G	Quel	4ee	-no-
2F	gior-	.	.	4r	.	2.A	sem-	2.ff	-ra-
.	.	4c	-bo et	4A	Man-	.	.	.	.
2D	-no	4.d	ho-	4A	-dò	.	.	.	.
.	.	.	.	4d	si al	4B	-pre a-	8eeL	.
.	.	8f	-no-	.	.	.	.	8ddJ	.
2r	.	4e	-ra-	4c	cor	2c	-cer-	4gg	.
.	.	4g	-to	4c	l’i-	.	.	[4ee	-to
=5	=5	=5	=5	=5	=5	=5	=5	=5	=5
0r	.	2f	gior-	4.F	-ma-	2A	-bo et	8eeL]	.
.	.	.	.	.	.	.	.	8ddJ	.
.	.	.	.	.	.	.	.	2dd	gior-
.	.	.	.	8G	-gi-	.	.	.	.
.	.	2e	-no	4A	-ne	4.A	ho-	.	.
.	.	.	.	4A	sua	.	.	4cc#i	.
.	.	.	.	.	.	8A	-no-	.	.
.	.	4r	.	2B-X	vi-	4F	-ra-	1dd	-no
.	.	4d	Man-	.	.	4F	-to	.	.
.	.	4d	-dò	2G	-va,	2B-i	gior-	.	.
.	.	4g	si al	.	.	.	.	.	.
=6	=6	=6	=6	=6	=6	=6	=6	=6	=6
1r	.	4f	cor	4r	.	2A	-no	2r	.
.	.	4f	l’i-	4A	Man-	.	.	.	.
.	.	4f	-ma-	4A	-dò	2r	.	2cc	Man-
.	.	4e	-gi-	4G	si al	.	.	.	.
4D	cor	4f	-ne	4d	cor	4r	.	4a	-dò
4D	l’i-	4f	sua	2A	l’i-	4A	Man-	4dd	si al
4.A	-ma-	2e	vi-	.	.	4A	-dò	4cc	cor
.	.	.	.	[4c	-ma-	4E	si al	4cc	l’i-
8G	-gi-	.	.	.	.	.	.	.	.
=7	=7	=7	=7	=7	=7	=7	=7	=7	=7
4F	-ne	2A	-va,	4c]	.	2A	cor	4.cc	-ma-
4F	sua	.	.	4A	-gi-	.	.	.	.
.	.	.	.	.	.	.	.	8dd	-gi-
2E	vi-	2r	.	4B	-ne	2G#X	l’i-	4ee	-ne
.	.	.	.	4B	sua	.	.	4ee	sua
1D	-va,	4r	.	1d	vi-	4.A	-ma-	4.ff	vi-
.	.	4A	Ch’in-	.	.	.	.	.	.
.	.	.	.	.	.	8GnXi	-gi-	8ee	.
.	.	2A	-ge-	.	.	2F	-ne	8ddL	.
.	.	.	.	.	.	.	.	8ccJ	.
.	.	.	.	.	.	.	.	[4dd	.
=8	=8	=8	=8	=8	=8	=8	=8	=8	=8
2r	.	4B	-gno o	2G	-va,	4D	sua	8ddL]	.
.	.	.	.	.	.	.	.	8ccJ	.
.	.	2d	stil	.	.	4.G	vi-	4b	.
2D	Ch’in-	.	.	2r	.	.	.	2a	-va,
.	.	.	.	.	.	8F#i	.	.	.
.	.	4d	non	.	.	4F#i	.	.	.
4E	-ge-	4B	fia	2r	.	[1G	-va,	4r	.
4E	-gno o	2c	mai	.	.	.	.	2ee	Ch’in-
2G	stil	.	.	4r	.	.	.	.	.
.	.	4B	che ’l	[4d	Ch’in-	.	.	[4dd	-ge-
=9	=9	=9	=9	=9	=9	=9	=9	=9	=9
4G	non	4B	de-	4d]	.	2G]	.	4dd]	.
4E	fia	4.c	-scri-	2e	-ge-	.	.	4g	-gno o
2A	mai	.	.	.	.	2r	.	4cc	stil
.	.	8d	.	.	.	.	.	.	.
.	.	4.e	.	4e	-gno o	.	.	4cc	non
2.G	che ’l	.	.	2g	stil	4r	.	4b	fia
.	.	8d	.	.	.	.	.	.	.
.	.	4.d	.	.	.	4D	Ch’in-	2b	mai
.	.	.	.	4g	non	4E	-ge-	.	.
.	.	8B	.	.	.	.	.	.	.
4A	de-	4c#X	.	4e	fia	4E	-gno o	4ee	che ’l
=10	=10	=10	=10	=10	=10	=10	=10	=10	=10
8DL	-scri-	4d	-va,	2f	mai,	2A	stil	4dd	de-
8E	.	.	.	.	.	.	.	.	.
8F	.	4d	Ch’in-	.	.	.	.	4.dd	-scri-
8DJ	.	.	.	.	.	.	.	.	.
2A	.	4e	-ge-	4r	.	4A	non	.	.
.	.	.	.	.	.	.	.	8cc#i	.
.	.	4e	-gno o	4A	Ch’in-	4A	fia	4cc#i	.
4G	-va,	4g	stil,	4B	-ge-	4D	mai	1dd	-va,
4G	Ch’in-	4G	Ch’in-	4B	-gno o	4G	che ’l	.	.
4D	-ge-	4A	-ge-	2d	stil	4F#X	de-	.	.
4F#X	-gno o	4A	-gno o	.	.	[4A	-scri-	.	.
=11	=11	=11	=11	=11	=11	=11	=11	=11	=11
2G	stil	4B	stil	4d	non	8AL]	.	1r	.
.	.	.	.	.	.	8GJ	.	.	.
.	.	2e	non	4B	fia	4.G	.	.	.
4A	non	.	.	4c	mai	.	.	.	.
.	.	.	.	.	.	16F#XLL	.	.	.
.	.	.	.	.	.	16EJJ	.	.	.
4A	fia	4c#X	fia	4A	che ’l	4F#i	.	.	.
2G	mai	4d	mai	2B	de-	2G	-va,	2dd	Ch’in-
.	.	4d	che ’l	.	.	.	.	.	.
4E	che ’l	4g	de-	2c	-scri-	2r	.	4ee	-ge-
4A	de-	[4e	-scri-	.	.	.	.	4ee	-gno o
=12	=12	=12	=12	=12	=12	=12	=12	=12	=12
4.G	-scri-	8eL]	.	4B	-va,	4r	.	2gg	stil
.	.	8dJ	.	.	.	.	.	.	.
.	.	4.d	.	4B	Ma	4G	Ch’in-	.	.
8F	.	.	.	.	.	.	.	.	.
2E	.	.	.	4B	spes-	4G	-ge-	4gg	non
.	.	8c#i	.	.	.	.	.	.	.
.	.	4c#i	.	4e	-so a	4G	-gno o	4ee	fia
2D	-va,	4d	-va,	4A	lui	4F	stil	4ff	mai
.	.	2f	che ’l	4d	con	4A	non	4ff	che ’l
2r	.	.	.	4d	la	4A	fia	4dd	de-
.	.	4e	de-	4c	me-	4A	mai	[4ee	-scri-
=13	=13	=13	=13	=13	=13	=13	=13	=13	=13
1r	.	4.g	-scri-	4B-i	-mo-	4B-X	che ’l	8eeL]	.
.	.	.	.	.	.	.	.	8ddJ	.
.	.	.	.	4G	-ria	4B-i	de-	4.dd	.
.	.	8f	.	.	.	.	.	.	.
.	.	2e	.	2A	tor-	4.A	-scri-	.	.
.	.	.	.	.	.	.	.	8cc#i	.
.	.	.	.	.	.	.	.	4cc#i	.
.	.	.	.	.	.	8G	.	.	.
2D	Ma	4d	-va,	4A	-no,	2F	.	2dd	-va,
.	.	4A	Ma	4d	Ma	.	.	.	.
2E	spes-	4A	spes-	4c	spes-	2E	-va,	2r	.
.	.	4G#X	-so a	4BnXi	-so a	.	.	.	.
=14	=14	=14	=14	=14	=14	=14	=14	=14	=14
4F	-so a	4A	lui	2d	lui	4r	.	0r	.
2G	lui	4B	con	.	.	2D	Ma	.	.
.	.	4B	la	2G	con	.	.	.	.
2C	con	4c	me-	.	.	2E	spes-	.	.
.	.	4c	-mo-	4G	la	.	.	.	.
4F	la	4d	-ria	4A	me-	4F	-so a	.	.
4E	me-	4.e	tor-	4.c	-mo-	4G	lui	.	.
[4A	-mo-	.	.	.	.	4E	con	.	.
.	.	8d	.	8d	-ria	.	.	.	.
=15	=15	=15	=15	=15	=15	=15	=15	=15	=15
4A]	.	4c	.	2e	tor-	4E	la	1r	.
4G	-ria	4B	-no,	.	.	4G	me-	.	.
2F	tor-	4r	.	2A	-no,	4A	-mo-	.	.
.	.	4A	Ma	.	.	4A	-ria	.	.
2E	-no,	4B	spes-	2r	.	2G	tor-	4r	.
.	.	4c	-so a	.	.	.	.	4g	con
2r	.	4d	lui	2G	Ma	2G	-no,	4b-X	la
.	.	4d	con	.	.	.	.	4b-i	me-
=16	=16	=16	=16	=16	=16	=16	=16	=16	=16
2D	Ma	2f	la	4A	spes-	4r	.	4a	-mo-
.	.	.	.	4B	-so a	4D	Ma	4dd	-ria
4E	spes-	4e	me-	2.c	lui	4G	spes-	2cc	tor-
4F	-so a	2a	-mo-	.	.	4F	-so a	.	.
4C	lui	.	.	.	.	4E	lui	2cc	-no,
4C	con	4g	-ria	4c	con	4E	con	.	.
4F	la	2f	tor-	4c	la	4A	la	2r	.
4D	me-	.	.	4d	me-	4A	me-	.	.
=17	=17	=17	=17	=17	=17	=17	=17	=17	=17
2.A	-mo-	2e	-no,	4.c	-mo-	2.c	-mo-	4r	.
.	.	.	.	.	.	.	.	2a	Ma
.	.	.	.	8d	-ria	.	.	.	.
.	.	2r	.	2e	tor-	.	.	.	.
4G	-ria	.	.	.	.	4B	-ria	4b	spes-
2F	tor-	4r	.	2A	-no,	2A	tor-	4cc	-so a
.	.	4A	Ma	.	.	.	.	4dd	lui
4E	-no,	2B	spes-	4r	.	4G	-no,	4r	.
[4E	Ma	.	.	[4G	Ma	4E	Ma	[4g	con
=18	=18	=18	=18	=18	=18	=18	=18	=18	=18
4E]	.	2c	-so a	4G]	.	4E	spes-	4g]	.
2F	spes-	.	.	2A	spes-	4C	-so a	2cc	la
.	.	4d	lui	.	.	4F	lui	.	.
4G	-so a	4d	con	4B	-so a	4D	con	4b	me-
4C	lui	2.g	la	4c	lui	2.C	la	2.ee	-mo-
4C	con	.	.	4G	con	.	.	.	.
4C	la	.	.	4G	la	.	.	.	.
4G	me-	4g	me-	4G	me-	4BB	me-	4dd	-ria
=19	=19	=19	=19	=19	=19	=19	=19	=19	=19
4E	-mo-	4g	-mo-	4G	-mo-	4C	-mo-	1cc	tor-
4F	-ria	4f	-ria	4A	-ria	4C	-ria	.	.
2C	tor-	2e	tor-	2G	tor-	2G	tor-	.	.
[1Gl	-no.	[1dl	-no.	[1Gl	-no.	[1Gl	-no.	[1bl	-no.
=20	=20	=20	=20	=20	=20	=20	=20	=20	=20
0G]	.	0d]	.	0G]	.	0G]	.	0b]	.
=21||	=21||	=21||	=21||	=21||	=21||	=21||	=21||	=21||	=21||
*M2/1	*	*M2/1	*	*M2/1	*	*M2/1	*	*M2/1	*
*met(C)	*	*met(C)	*	*met(C)	*	*met(C)	*	*met(C)	*
!!section: L'atto d'ogni
!!!OMD: L'atto d'ogni
2.C	L’at-	1e	L’at-	2.G	L’at-	2r	.	0r	.
.	.	.	.	.	.	1G	L’at-	.	.
4C	-to	.	.	4G	-to	.	.	.	.
2G	d’o-	4d	-to	2B	d’o-	.	.	.	.
.	.	4d	d’o-	.	.	.	.	.	.
4G	-gni	4d	-gni	4B	-gni	2G	-to	.	.
4G	gen-	4e	gen-	4B	gen-	.	.	.	.
=22	=22	=22	=22	=22	=22	=22	=22	=22	=22
4F	-til	4f	-til	4c	-til	2A	d’o-	0r	.
4D	pie-	4f	pie-	4d	pie-	.	.	.	.
2.A	-ta-	4.e	-ta-	4.c	-ta-	4A	-gni	.	.
.	.	.	.	.	.	4A	gen-	.	.
.	.	8d	.	8d	.	.	.	.	.
.	.	4c	.	4e	.	4A	-til	.	.
4G	-te a-	4B	-te a-	4e	-te a-	4E	pie-	.	.
2F	-dor-	2c	-dor-	2f	-dor-	2A	-ta-	.	.
=23	=23	=23	=23	=23	=23	=23	=23	=23	=23
2C	-no,	4c	-no,	2e	-no,	4G	-te a-	1r	.
.	.	2c	L’at-	.	.	4.G	-dor-	.	.
2C	L’at-	.	.	2.e	L’at-	.	.	.	.
.	.	.	.	.	.	8FL	.	.	.
.	.	4c	-to	.	.	8E	.	.	.
.	.	.	.	.	.	8DJ	.	.	.
4C	-to	2g	d’o-	.	.	4C	.	4g	L’at-
4G	d’o-	.	.	4d	-to	4.BB	-no,	4g	-to
4G	-gni	4g	-gni	2d	d’o-	.	.	2dd	d’o-
.	.	.	.	.	.	8AAL	.	.	.
4G	gen-	4g	gen-	.	.	8BB	.	.	.
.	.	.	.	.	.	8CJ	.	.	.
=24	=24	=24	=24	=24	=24	=24	=24	=24	=24
4B-X	-til	4f	-til	4d	-gni	2D	.	4dd	-gni
4B-i	pie-	4g	pie-	4d	gen-	.	.	4dd	pie-
2.A	-ta-	2.a	-ta-	4f	-til	4r	.	4cc	-ta-
.	.	.	.	4f	pie-	2C	E ’l	4a	-te a-
.	.	.	.	4.e	-ta-	.	.	2.ee	-dor-
4E	-te a-	4g	-te a-	.	.	4BB	dol-	.	.
.	.	.	.	8d	.	.	.	.	.
4.F	-dor-	2f	-dor-	4c	.	4AA	-ce a-	.	.
.	.	.	.	4A	-te a-	[4A	-ma-	4dd	.
8G	.	.	.	.	.	.	.	.	.
=25	=25	=25	=25	=25	=25	=25	=25	=25	=25
2A	.	2e	-no,	8AL	-dor-	4A]	.	2cc	.
.	.	.	.	8B	.	.	.	.	.
.	.	.	.	8c	.	4A	-ro	.	.
.	.	.	.	8dJ	.	.	.	.	.
2E	-no,	4r	.	2e	.	4G	la-	2b	-no,
.	.	2e	E ’l	.	.	4G	-men-	.	.
2F	E ’l	.	.	2A	-no,	2F	-tar	1r	.
.	.	4d	dol-	.	.	.	.	.	.
4E	dol-	4c	-ce a-	2r	.	4G	ch’io u-	.	.
4D	-ce a-	[4f	-ma-	.	.	[4A	-di-	.	.
=26	=26	=26	=26	=26	=26	=26	=26	=26	=26
2.A	-ma-	4f]	.	1c	E ’l	2A]	.	1r	.
.	.	4e	-ro	.	.	.	.	.	.
.	.	2.e	la-	.	.	2A	-va,	.	.
4A	-ro	.	.	.	.	.	.	.	.
4G	la-	.	.	4B	dol-	1r	.	4r	.
4F	-men-	4f	-men-	4A	-ce a-	.	.	2cc	E ’l
4E	-tar	4g	-tar	[2e	-ma-	.	.	.	.
4E	ch’io u-	4g	ch’io u-	.	.	.	.	4b	dol-
=27	=27	=27	=27	=27	=27	=27	=27	=27	=27
2A	-di-	4.c	-di-	4e]	.	4r	.	4a	-ce a-
.	.	.	.	4e	-ro	2C	E ’l	2ee	-ma-
.	.	8d	.	.	.	.	.	.	.
4E	-va,	4e	.	2.g	la-	.	.	.	.
4E	E ’l	4e	-va,	.	.	2BB	dol-	4ee	-ro
4G	dol-	2r	.	.	.	.	.	4dd	la-
4D	-ce a-	.	.	4f	-men-	2AA	-ce a-	4dd	-men-
[2A	-ma-	4r	.	4e	-tar	.	.	2cc	-tar
.	.	[4c	E ’l	4e	ch’io u-	[4A	-ma-	.	.
=28	=28	=28	=28	=28	=28	=28	=28	=28	=28
4A]	.	4c]	.	2e	-di-	4A]	.	4a	ch’io u-
4E	-ro	2B	dol-	.	.	4G	-ro	4.b	-di-
4G	la-	.	.	2d	-va	4G	la-	.	.
.	.	.	.	.	.	.	.	8cc	.
4D	-men-	2A	-ce a-	.	.	4F	-men-	4dd	.
4.A	-tar	.	.	1r	.	4E	-tar	2cc	-va,
.	.	2e	-ma-	.	.	4A	ch’io u-	.	.
8B	.	.	.	.	.	.	.	.	.
2c	.	.	.	.	.	2G	-di-	4r	.
.	.	4e	-ro	.	.	.	.	[4cc	Fa-
=29	=29	=29	=29	=29	=29	=29	=29	=29	=29
2G	ch’io u-	4d	la-	1r	.	4G	-va	4cc]	.
.	.	4d	-men-	.	.	4G	Fa-	4b	-cean
4.F	-di-	4f	-tar	.	.	2.A	-cean	4cc	dub-
.	.	4f	ch’io u-	.	.	.	.	4dd	-biar,
16ELL	.	.	.	.	.	.	.	.	.
16DJJ	.	.	.	.	.	.	.	.	.
8CL	.	2e	-di-	2c	Fa-	.	.	4ee	se
8D	.	.	.	.	.	.	.	.	.
8E	.	.	.	.	.	4G	dub-	2gg	mor-
8FJ	.	.	.	.	.	.	.	.	.
4G	.	4d	-va	4B	-cean	2G	-biar,	.	.
4C	-va	4g	Fa-	4c	dub-	.	.	4ee	-tal
=30	=30	=30	=30	=30	=30	=30	=30	=30	=30
4r	.	4f	-cean	4d	-biar	1r	.	4ff	don-
2c	Fa-	4g	dub-	4e	se	.	.	4ee	-na o
.	.	2G	-biar,	2g	mor-	.	.	4ee	di-
4B	-cean	.	.	.	.	.	.	4dd	-va
2c	dub-	2r	.	4e	-tal	4r	.	2cc	Fos-
.	.	.	.	2e	don-	2G	Fa-	.	.
2A	-biar	2c	Fa-	.	.	.	.	2cc	-se
.	.	.	.	8dL	.	4F#X	-cean	.	.
.	.	.	.	8cJ	.	.	.	.	.
=31	=31	=31	=31	=31	=31	=31	=31	=31	=31
4G	se	4B	-cean	8dL	.	4G	dub-	1r	.
.	.	.	.	8eJ	.	.	.	.	.
4F	mor-	4c	dub-	2f	.	4.A	-biar	.	.
4F	-tal	4d	-biar	.	.	.	.	.	.
.	.	.	.	.	.	8B	.	.	.
8CL	don-	4e	se	4g	-na o	2c	.	.	.
8DJ	.	.	.	.	.	.	.	.	.
8EL	.	2g	mor-	4e	di-	.	.	4r	.
8FJ	.	.	.	.	.	.	.	.	.
4G	.	.	.	4d	-va	4B	se	2g	che ’l
4C	-na o	4e	-tal	2c	Fos-	2c	mor-	.	.
[4F	di-	[4f	don-	.	.	.	.	[4a	ciel
=32	=32	=32	=32	=32	=32	=32	=32	=32	=32
4F]	.	4f]	.	2c	-se,	4A	-tal	8aL]	.
.	.	.	.	.	.	.	.	8bJ	.
4C	-va	4e	-na o	.	.	2G	don-	2cc	.
2G	Fos-	4e	di-	2r	.	.	.	.	.
.	.	4d	-va	.	.	4G	-na o	4b	ras-
2C	-se,	8cL	Fos-	2r	.	4.G	di-	4ee	-se-
.	.	8d	.	.	.	.	.	.	.
.	.	8e	.	.	.	.	.	4ee	-re-
.	.	8fJ	.	.	.	8A	.	.	.
2r	.	2g	.	2G	che ’l	4B-X	.	4.dd	-na-
.	.	.	.	.	.	4B-i	-va	.	.
.	.	.	.	.	.	.	.	8ee	.
=33	=33	=33	=33	=33	=33	=33	=33	=33	=33
1r	.	2c	-se,	4.A	ciel	2A	Fos-	4ff	.
.	.	.	.	.	.	.	.	2ee	-va in-
.	.	.	.	8B	.	.	.	.	.
.	.	2r	.	4c	.	2G	-se,	.	.
.	.	.	.	4B	ras-	.	.	4.dd	-tor-
2r	.	2A	che ’l	4e	-se-	1r	.	.	.
.	.	.	.	.	.	.	.	8cc#i	.
.	.	.	.	4e	-re-	.	.	4cc#i	.
2G	che ’l	4.B	ciel	4.d	-na-	.	.	4dd	-no,
.	.	.	.	.	.	.	.	4b	che ’l
.	.	8c	.	8e	.	.	.	.	.
=34	=34	=34	=34	=34	=34	=34	=34	=34	=34
4D	ciel	4d	.	4f	.	1r	.	2.a	ciel
4A	ras-	4c	ras-	2e	-va in-	.	.	.	.
4A	-se-	4f	-se-	.	.	.	.	.	.
4D	-re-	4f	-re-	2d	-tor-	.	.	4a	ras-
2A	-na-	4.e	-na-	.	.	4r	.	2a	-se-
.	.	.	.	4c	-no,	4A	che ’l	.	.
.	.	8f	.	.	.	.	.	.	.
4G	-va in-	4g	.	4r	.	4.D	ciel	4b	-re-
[4D	-tor-	[4f	-va in-	4A	che ’l	.	.	4dd	-na-
.	.	.	.	.	.	8E	.	.	.
=35	=35	=35	=35	=35	=35	=35	=35	=35	=35
4D]	.	4f]	.	4d	ciel	4F	.	4a	-va in-
4E	.	4.e	-tor-	4c	ras-	4G	ras-	2cc	-tor-
2F	.	.	.	4A	-se-	4A	-se-	.	.
.	.	16dLL	.	.	.	.	.	.	.
.	.	16cJJ	.	.	.	.	.	.	.
.	.	4d	.	4A	-re-	4A	-re-	8bL	.
.	.	.	.	.	.	.	.	8aJ	.
2E	-no.	4G	-no,	4.e	-na-	4.G	-na-	8ccL	.
.	.	.	.	.	.	.	.	8bJ	.
.	.	4c	ras-	.	.	.	.	4ee	.
.	.	.	.	8f	.	8A	.	.	.
2r	.	4G	-se-	4g	.	4B-X	.	2dd	-no.
.	.	4d	-re-	4f	-va in-	[4A	-va in-	.	.
=36	=36	=36	=36	=36	=36	=36	=36	=36	=36
2r	.	4c	-na-	2e	-tor-	4A]	.	1r	.
.	.	4c	-va in-	.	.	4.G	-tor-	.	.
2D	La	2A	-tor-	2d	-no.	.	.	.	.
.	.	.	.	.	.	8F#i	.	.	.
.	.	.	.	.	.	4F#i	.	.	.
2.E	te-	2G	-no.	1r	.	4G	-no.	2b	La
.	.	.	.	.	.	4G	La	.	.
.	.	2G	La	.	.	2E	te-	[2cc	te-
4E	-sta or	.	.	.	.	.	.	.	.
=37	=37	=37	=37	=37	=37	=37	=37	=37	=37
2F	fi-	2.A	te-	2r	.	2C	-sta or	4cc]	.
.	.	.	.	.	.	.	.	4cc	-sta or
2D	-no,	.	.	2d	La	2F	fi-	2dd	fi-
.	.	4B	-sta or	.	.	.	.	.	.
1r	.	1c	fi-	2.e	te-	4E	-no,	2g	-no,
.	.	.	.	.	.	2G	La	.	.
.	.	.	.	.	.	.	.	4r	.
.	.	.	.	4e	-sta or	[4A	te-	[4cc	La
=38	=38	=38	=38	=38	=38	=38	=38	=38	=38
4r	.	2A	-no,	2f	fi-	4A]	.	4cc]	.
4D	et	.	.	.	.	4A	-sta or	2dd	te-
4G	cal-	4r	.	2d	-no,	2B-X	fi-	.	.
4G	-da	4G	et	.	.	.	.	4dd	-sta or
4E	ne-	4c	cal-	4r	.	2G	-no,	2ee	fi-
4E	-ve il	4c	-da	2c	et	.	.	.	.
2F	vol-	4A	ne-	.	.	2r	.	2cc	-no,
.	.	4A	-ve il	4f	cal-	.	.	.	.
=39	=39	=39	=39	=39	=39	=39	=39	=39	=39
2D	-to,	2B-X	vol-	4f	-da	4r	.	4r	.
.	.	.	.	4d	ne-	4F	et	2dd	et
4r	.	2G	-to,	4d	-ve il	4B-i	cal-	.	.
4C	et	.	.	2.e	vol-	4G	-da	4gg	cal-
4c	cal-	1r	.	.	.	4G	ne-	4gg	-da
4c	-da	.	.	.	.	4G	-ve il	4ee	ne-
4A	ne-	.	.	2c	-to,	2A	vol-	4ee	-ve il
4A	-ve il	.	.	.	.	.	.	[4ff	vol-
=40	=40	=40	=40	=40	=40	=40	=40	=40	=40
2B-X	vol-	2d	He-	2r	.	2F	-to,	4ff]	.
.	.	.	.	.	.	.	.	4dd	-to,
2G	-to,	4B	-be-	2.d	He-	2r	.	4r	.
.	.	2B	-no i	.	.	.	.	2dd	He-
2r	.	.	.	.	.	2G	He-	.	.
.	.	2c	ci-	4e	-be-	.	.	4cc	-be-
2F	He-	.	.	4f	-no i	4A	-be-	2cc	-no i
.	.	4A	-gli,	[4f	ci-	[4A	-no i	.	.
=41	=41	=41	=41	=41	=41	=41	=41	=41	=41
4D	-be-	4r	.	4f]	.	4A]	.	2.ff	ci-
2D	-no i	4A	et	4d	-gli,	2A	ci-	.	.
.	.	4d	gli oc-	4r	.	.	.	.	.
2G	ci-	4B	-chi e-	4d	et	4G	-gli,	4dd	-gli,
.	.	4B	-ran	4g	gli oc-	4r	.	4r	.
4C	-gli,	4c	due	4e	-chi e	4G	et	4cc	et
4r	.	2A	stel-	4e	ran	4.c	gli oc-	4cc	gli oc-
4F	et	.	.	4f	due	.	.	4a	-chi e-
.	.	.	.	.	.	8B	.	.	.
=42	=42	=42	=42	=42	=42	=42	=42	=42	=42
4F	gli oc-	2A	-le,	2f	stel-	8AL	.	4cc	-ran
.	.	.	.	.	.	8GJ	.	.	.
4D	-chi e-	.	.	.	.	2A	.	4dd	due
4E	-ran	4r	.	2e	-le,	.	.	2b	stel-
4E	due	4e	et	.	.	4G	-chi e-	.	.
2A	stel-	4c	gli oc-	4r	.	4E	-ran	1a	-le,
.	.	4A	-chi e-	4c	et	4F	due	.	.
2A	-le,	8AL	-ran	4c	gli oc-	2E	stel-	.	.
.	.	8B	.	.	.	.	.	.	.
.	.	8c	.	4A	-chi e-	.	.	.	.
.	.	8dJ	.	.	.	.	.	.	.
=43	=43	=43	=43	=43	=43	=43	=43	=43	=43
2r	.	4e	.	4c	-ran	4AA	-le,	0r	.
.	.	4f	due	4d	due	4A	et	.	.
2E	et	2e	stel-	2B	stel-	4A	gli oc-	.	.
.	.	.	.	.	.	4G	-chi e-	.	.
2.F	gli oc-	4c	-le,	4A	-le,	4c	-ran	.	.
.	.	4A	et	4c	et	4c	due	.	.
.	.	4A	gli oc-	2d	gli oc-	4.A	stel-	.	.
4D	-chi e-	4A	-chi e-	.	.	.	.	.	.
.	.	.	.	.	.	8G	.	.	.
=44	=44	=44	=44	=44	=44	=44	=44	=44	=44
4F	-ran	4A	-ran	4c	-chi e-	8FL	.	1r	.
.	.	.	.	.	.	8EJ	.	.	.
4G	due	4B-X	due	2g	-ran	2D	.	.	.
2E	stel-	2G	stel-	.	.	.	.	.	.
.	.	.	.	4g	due	4C#X	-le,	.	.
2D	-le,	2A	-le,	4.f	stel-	4r	.	2.ff	-mor
.	.	.	.	.	.	2D	On-	.	.
.	.	.	.	8g	.	.	.	.	.
2r	.	4r	.	4a	.	.	.	.	.
.	.	[4A	On-	4a	-le,	4E	-de A-	[4ee	l’ar-
=45	=45	=45	=45	=45	=45	=45	=45	=45	=45
0r	.	4A]	.	4r	.	4F	-mor	4ee]	.
.	.	4B	-de A-	4d	On-	4G	l’ar-	4dd	-co
.	.	4c	-mor	4e	-de A-	4A	-co	4cc	non
.	.	2d	l’ar-	2f	-mor	4A	non	4a	ten-
.	.	.	.	.	.	4B	ten-	4dd	-de-
.	.	4A	-co	2e	l’ar-	2c	-de-	4ee	-va in
.	.	2f	non	.	.	.	.	2ff	fal-
.	.	.	.	4d	-co	4B	-va in	.	.
=46	=46	=46	=46	=46	=46	=46	=46	=46	=46
0r	.	4g	ten-	4c	non	2c	fal-	4ee	-lo,
.	.	2a	-de-	4A	ten-	.	.	4ee	On-
.	.	.	.	4d	-de-	4A	-lo,	4ff	-de A-
.	.	4e	-va in	4c#X	-va in	2A	On-	4.ee	-mor
.	.	2f	fal-	2d	fal-	.	.	.	.
.	.	.	.	.	.	.	.	8dd	.
.	.	.	.	.	.	4B	-de A-	8ddL	.
.	.	.	.	.	.	.	.	16ccL	.
.	.	.	.	.	.	.	.	16ddJJ	.
.	.	2e	-lo,	4A	-lo,	4c	-mor	4ee	.
.	.	.	.	[4A	On-	[4A	l’ar-	4cc	l’ar-
=47	=47	=47	=47	=47	=47	=47	=47	=47	=47
1r	.	1r	.	4A]	.	4A]	.	4cc	-co
.	.	.	.	4B	-de A-	4G	-co	4dd	non
.	.	.	.	4c#X	-mor	2F	non	4a	ten-
.	.	.	.	2d	l’ar-	.	.	8ddL	-de-
.	.	.	.	.	.	.	.	8eeJ	.
4B-X	-mor	1r	.	.	.	4D	ten-	8ffL	.
.	.	.	.	.	.	.	.	8ddJ	.
2A	l’ar-	.	.	4cnXi	-co	2A	-de-	4.ee	.
.	.	.	.	4c	non	.	.	.	.
.	.	.	.	.	.	.	.	8ff	.
4G	-co	.	.	4d	ten-	4B-X	-va in	4gg	.
=48	=48	=48	=48	=48	=48	=48	=48	=48	=48
4F	non	4r	.	4f	-de-	4.A	fal-	4cc	-va in
4D	ten-	2d	non	4f	-va in	.	.	2dd	fal-
.	.	.	.	.	.	16GLL	.	.	.
.	.	.	.	.	.	16AJJ	.	.	.
4G	-de-	.	.	2d	fal-	4B-i	.	.	.
4F#X	-va in	4A	ten-	.	.	4.A	.	4dd	-lo,
2G	fal-	4B-X	-de-	2d	-lo,	.	.	4r	.
.	.	.	.	.	.	8G	.	.	.
.	.	4B-i	-va in	.	.	2G	.	2dd	Per-
2D	-lo,	2A	fal-	2r	.	.	.	.	.
.	.	.	.	.	.	4F#i	.	4a	-le et
=49	=49	=49	=49	=49	=49	=49	=49	=49	=49
4r	.	4G	-lo,	2d	Per-	1.G	-lo,	4.b	ro-
2G	Per-	4d	Per-	.	.	.	.	.	.
.	.	.	.	.	.	.	.	8cc	.
.	.	4B	-le et	4G	-le et	.	.	8ddL	.
.	.	.	.	.	.	.	.	8bJ	.
4C	-le et	2c	ro-	2G	ro-	.	.	2ee	.
2G	ro-	.	.	.	.	.	.	.	.
.	.	4B	-se	4G	-se	.	.	2dd	-se
4F	-se	2c	ver-	4A	ver-	4r	.	.	.
4F	ver-	.	.	[4c	-mi-	[4A	Per-	4cc	ver-
=50	=50	=50	=50	=50	=50	=50	=50	=50	=50
2D	-mi-	2d	-mi-	8cL]	.	4A]	.	2ff	-mi-
.	.	.	.	16BL	.	.	.	.	.
.	.	.	.	16AJJ	.	.	.	.	.
.	.	.	.	4B	.	4D	-le et	.	.
2C	-glie,	4G	-glie,	4c	-glie,	4.E	ro-	2ee	-glie,
.	.	2g	Per-	2c	Per-	.	.	.	.
.	.	.	.	.	.	8F	.	.	.
1r	.	.	.	.	.	8GL	.	2ee	Per-
.	.	.	.	.	.	8EJ	.	.	.
.	.	4c	-le et	4A	-le et	2A	.	.	.
.	.	4.e	ro-	2c	ro-	.	.	4cc	-le et
.	.	.	.	.	.	[4G	-se	[4ee	ro-
.	.	8f	.	.	.	.	.	.	.
=51	=51	=51	=51	=51	=51	=51	=51	=51	=51
1r	.	8gL	.	4c	-se	4G]	.	8eeL]	.
.	.	8eJ	.	.	.	.	.	8eeJ	-se
.	.	2a	.	4d	ver-	4F	ver-	4ff	ver-
.	.	.	.	2G	-mi-	2B-i	-mi-	1dd	-mi-
.	.	2g	-se	.	.	.	.	.	.
2D	o-	.	.	2d	-glie,	2A	-glie,	.	.
.	.	4f#i	ver-	.	.	.	.	.	.
[2C	-ve	4g	-mi-	4r	.	2r	.	[2ee	-glie,
.	.	4g	-glie	[4G	o-	.	.	.	.
=52	=52	=52	=52	=52	=52	=52	=52	=52	=52
4C]	.	4r	.	4G]	.	2r	.	2ee]	.
4C	l’ac-	4c	o-	4G	-ve	.	.	.	.
2F	-col-	4c	-ve	2A	l’ac-	2A	o-	2r	.
.	.	4d	l’ac-	.	.	.	.	.	.
4E	-to	2e	-col-	4.B	-col-	4G	-ve	1r	.
4E	Do-	.	.	.	.	4G	l’ac-	.	.
.	.	.	.	8c	.	.	.	.	.
2D	-lor	4A	-to	2d	.	2F	-col-	.	.
.	.	4B-X	Do-	.	.	.	.	.	.
=53	=53	=53	=53	=53	=53	=53	=53	=53	=53
2D	for-	2A	-lor	4d	-to	4F	-to	1r	.
.	.	.	.	4d	Do-	4F	Do-	.	.
2A	-ma-	4A	for-	2c	-lor	2E	-lor	.	.
.	.	2e	-ma-	.	.	.	.	.	.
4G	-va ar-	.	.	1r	.	4G	for-	2r	.
2F	-den-	4d	-va ar-	.	.	2A	-ma-	.	.
.	.	2c	-den-	.	.	.	.	4r	.
4E	-ti	.	.	.	.	4G	-va ar-	4ee	o-
=54	=54	=54	=54	=54	=54	=54	=54	=54	=54
4G	vo-	4B	-ti	1r	.	4G	-den-	4dd	-ve
4D	-ci et	2d	vo-	.	.	4F	-ti	4dd	l’ac-
2E	bel-	.	.	.	.	4E	vo-	2gg	-col-
.	.	4c#i	-ci et	.	.	4E	-ci et	.	.
2D	-le,	2d	bel-	4r	.	1A	bel-	4ff	-to
.	.	.	.	4d	o-	.	.	4ff	Do-
4r	.	2A	-le,	4c	-ve	.	.	2ee	-lor
4A	o-	.	.	4c	l’ac-	.	.	.	.
=55	=55	=55	=55	=55	=55	=55	=55	=55	=55
4F	-ve	4r	.	2f	-col-	1A	-le,	4r	.
4D	l’ac-	4d	o-	.	.	.	.	4dd	for-
2A	-col-	4c	-ve	4e	-to	.	.	2.ee	-ma-
.	.	4c	l’ac-	4e	Do-	.	.	.	.
4A	-to	2f	-col-	2A	-lor	2r	.	.	.
4D	Do-	.	.	.	.	.	.	4dd	-va ar-
4A	-lor	4e	-to	4r	.	2A	o-	4cc	-den-
4A	for-	4e	Do-	4A	for-	.	.	4cc	-ti
=56	=56	=56	=56	=56	=56	=56	=56	=56	=56
2B-X	-ma-	4d	-lor	2.d	-ma-	4F	-ve	2.ff	vo-
.	.	4d	for-	.	.	4D	l’ac-	.	.
2A	-va ar-	2.a	-ma-	.	.	2E	-col-	.	.
.	.	.	.	4c#X	-va ar-	.	.	4ee	-ci et
4D	-den-	.	.	4d	-den-	4F	-to	4dd	bel-
4G	-ti	4g	-va ar-	4d	-ti	4D	Do-	8ccL	.
.	.	.	.	.	.	.	.	8bJ	.
2A	vo-	4f	-den-	4A	vo-	4A	-lor	8ccL	.
.	.	.	.	.	.	.	.	8ddJ	.
.	.	4e	-ti	4c#i	-ci et	4A	for-	[4ee	.
=57	=57	=57	=57	=57	=57	=57	=57	=57	=57
2G	-ci et	4.g	vo-	2d	bel-	2B-X	-ma-	8eeL]	.
.	.	.	.	.	.	.	.	8ddJ	.
.	.	.	.	.	.	.	.	2dd	.
.	.	8f	-ci et	.	.	.	.	.	.
4.A	bel-	2e	bel-	2A	-le,	4A	-va ar-	.	.
.	.	.	.	.	.	2A	-den-	4cc#i	.
8G	.	.	.	.	.	.	.	.	.
8FL	.	1d	-le,	4r	.	.	.	4dd	-le,
8DJ	.	.	.	.	.	.	.	.	.
4G	.	.	.	4B-X	Fiam-	4G	-ti	4d	Fiam-
4D	-le,	.	.	4A	-ma i	4F#X	vo-	4a	-ma i
4d	Fiam-	.	.	4G	so-	4G	-ci et	4b-X	so-
=58	=58	=58	=58	=58	=58	=58	=58	=58	=58
4d	-ma i	2r	.	4A	-spir,	2E	bel-	2a	-spir,
4c#X	so-	.	.	4A	le	.	.	.	.
4d	-spir,	2d	Fiam-	2.a	la-	4F	-le,	2r	.
4D	Fiam-	.	.	.	.	4F	Fiam-	.	.
4A	-ma i	4c#X	-ma i	.	.	4E	-ma i	1r	.
4B-X	so-	4.d	so-	4g	-gri-	4D	so-	.	.
2A	-spir,	.	.	4f	-me	2A	-spir,	.	.
.	.	8c#i	.	.	.	.	.	.	.
.	.	4c#i	.	4e	cris-	.	.	.	.
=59	=59	=59	=59	=59	=59	=59	=59	=59	=59
4r	.	4d	-spir,	2d	-tal-	2A	le	2.ff	Fiam-
4D	le	2A	le	.	.	.	.	.	.
2A	la-	.	.	2c	-lo,	2c	la-	.	.
.	.	2e	la-	.	.	.	.	2ee	-ma i
4G	-gri-	.	.	1r	.	4B	-gri-	.	.
4F	-me	4A	-gri-	.	.	4A	-me	4dd	so-
4E	cris-	4B	-me	.	.	4G	cris-	4ee	-spir,
[4D	-tal-	4d	cris-	.	.	[4F	-tal-	[4a	le
=60	=60	=60	=60	=60	=60	=60	=60	=60	=60
4D]	.	8AL	-tal-	4r	.	4F]	.	4a]	.
.	.	8BJ	.	.	.	.	.	.	.
4C	-lo,	4.c	.	4g	Fiam-	4E	-lo,	2ee	la-
4r	.	.	.	4g	-ma i	2r	.	.	.
.	.	8B	.	.	.	.	.	.	.
4G	Fiam-	4B	.	4g	so-	.	.	4dd	-gri-
4A	-ma i	4c	-lo,	2e	-spir,	4r	.	4cc	-me
4E	so-	4G	Fiam-	.	.	4G	Fiam-	4b	cris-
2F	-spir,	4c	-ma i	4r	.	4F	-ma i	2a	-tal-
.	.	4A	so-	[4c	le	4F	so-	.	.
=61	=61	=61	=61	=61	=61	=61	=61	=61	=61
2r	.	2c	-spir,	4c]	.	4E	-spir,	4g	-lo,
.	.	.	.	2g	la-	4E	le	4r	.
4r	.	2r	.	.	.	2.A	la-	4ee	Fiam-
4D	Fiam-	.	.	4f	-gri-	.	.	4dd	-ma i
4A	-ma i	4r	.	4e	-me	.	.	4cc#X	so-
4B-i	so-	4d	le	4d	cris-	4G	-gri-	4dd	-spir,
2A	-spir,	[2a	la-	2c	-tal-	4F	-me	4r	.
.	.	.	.	.	.	4E	cris-	4a	le
=62	=62	=62	=62	=62	=62	=62	=62	=62	=62
1r	.	4a]	.	2B	-lo,	2D	-tal-	2.dd	la-
.	.	4g	-gri-	.	.	.	.	.	.
.	.	4f	-me	4r	.	2A	-lo,	.	.
.	.	4e	cris-	4A	Fiam-	.	.	4cc#X	-gri-
2D	le	2d	-tal-	4f	-ma i	2A	Fiam-	4dd	-me
.	.	.	.	4f	so-	.	.	4dd	cris-
[2A	la-	4c	-lo,	2e	-spir	4A	-ma i	2ee	-tal-
.	.	[4c	Fiam-	.	.	4A	so-	.	.
=63	=63	=63	=63	=63	=63	=63	=63	=63	=63
4A]	.	4c]	.	2r	.	2E	-spir,	2ee	-lo,
4G	-gri-	4B	-ma i	.	.	.	.	.	.
4F	-me	4A	so-	4d	le	4r	.	2r	.
4E	cris-	4B	-spir,	2g	la-	4E	le	.	.
2D	-tal-	4r	.	.	.	2.A	la-	2r	.
.	.	4A	le	4f	-gri-	.	.	.	.
4C	-lo,	4.c	la-	4.e	-me	.	.	2ee	le
[4C	le	.	.	.	.	4G	-gri-	.	.
.	.	8d	.	8d	.	.	.	.	.
=64	=64	=64	=64	=64	=64	=64	=64	=64	=64
4C]	.	4e	.	4c	.	4.G	-me	2.gg	la-
2G	la-	4d	-gri-	4B	cris-	.	.	.	.
.	.	.	.	.	.	8A	.	.	.
.	.	2d	-me	2d	-tal-	4B-X	.	.	.
4D	-gri-	.	.	.	.	4A	cris-	4ff	-gri-
4E	-me	2B	cris-	[1Gl	-lo.	1G	-tal-	4ee	-me
4BB	cris-	.	.	.	.	.	.	4dd	cris-
2C	-tal-	2e	-tal-	.	.	.	.	2cc	-tal-
=65	=65	=65	=65	=65	=65	=65	=65	=65	=65
0Gl	-lo.	0dl	-lo.	0G]	.	0Gl	-lo.	0bl	-lo.
==	==	==	==	==	==	==	==	==	==
*-	*-	*-	*-	*-	*-	*-	*-	*-	*-
!!!system-decoration: s1,s2,s3,s4,s5
!!!RDF**kern: i = editorial accidental
!!!RDF**kern: l = terminal long
!!!ENC: Janosch Umbreit
!!!END: 2026/04/18
!!!EED: Benjamin Ory
!!!EEV: 2026/05/18
!!!YEC: Copyright 2026 Jessie Ann Owens and Scott Metcalfe, All Rights Reserved
!!!ONB: Translated from MusicXML on 2026/05/18
!!!verovio: header encoded
!!!header-left: Edited by Jessie Ann Owens and Scott Metcalfe (2026)\n
!!!header-right:
!!!header-center:
!!muse2ps: C^@{COM}^i2I150v75,75,75,75,110c122z18l2780t100
